badge-account-horizontal-outline.svg

<svg fill="currentColor" viewBox="0 0 24 24"><path d="M8 9a2 2 0 0 1 2 2 2 2 0 0 1-2 2 2 2 0 0 1-2-2 2 2 0 0 1 2-2m4 8H4v-1c0-1.33 2.67-2 4-2s4 .67 4 2zm8-9h-6v2h6zm0 4h-6v2h6zm0 4h-6v2h6zm2-12h-8v2h8v14H2V6h8V4H2a2 2 0 0 0-2 2v14a2 2 0 0 0 2 2h20a2 2 0 0 0 2-2V6a2 2 0 0 0-2-2m-9 2h-2V2h2z"/></svg>

<svg  viewBox="0 0 24 24" fill="currentColor"><path  d="M8,9A2,2 0 0,1 10,11A2,2 0 0,1 8,13A2,2 0 0,1 6,11A2,2 0 0,1 8,9M12,17H4V16C4,14.67 6.67,14 8,14C9.33,14 12,14.67 12,16V17M20,8H14V10H20V8M20,12H14V14H20V12M20,16H14V18H20V16M22,4H14V6H22V20H2V6H10V4H2A2,2 0 0,0 0,6V20A2,2 0 0,0 2,22H22A2,2 0 0,0 24,20V6A2,2 0 0,0 22,4M13,6H11V2H13V6Z"/></svg>
